build/documents/DocsOutline.svg

<svg xmlns="http://www.w3.org/2000/svg" fill="none" viewBox="0 0 24 24" focusable="false"><path d="M0 0H24V24H0z"/><path fill="#74767B" fill-rule="evenodd" d="M17.65 3.35004C19.3069 3.35004 20.65 4.69318 20.65 6.35004L20.65 16.35C20.65 18.0069 19.3069 19.35 17.65 19.35L9.65 19.35C7.99314 19.35 6.65 18.0069 6.65 16.35L6.65 6.35004C6.65 4.69318 7.99314 3.35004 9.65 3.35004L17.65 3.35004ZM9.65 4.65004L17.65 4.65004C18.5889 4.65004 19.35 5.41115 19.35 6.35004L19.35 16.35C19.35 17.2889 18.5889 18.05 17.65 18.05L9.65 18.05C8.71112 18.05 7.95 17.2889 7.95 16.35L7.95 6.35004C7.95 5.41115 8.71112 4.65004 9.65 4.65004ZM13.3745 8.54752C13.7335 8.54752 14.0245 8.2565 14.0245 7.89752C14.0245 7.53853 13.7335 7.24752 13.3745 7.24752L10.6704 7.24751C10.3114 7.24751 10.0204 7.53853 10.0204 7.89751C10.0204 8.2565 10.3114 8.54751 10.6704 8.54751L13.3745 8.54752ZM4.65 8.70004C4.29101 8.70004 4 8.99105 4 9.35004L4 18.75C4 20.545 5.45507 22 7.25 22L15.65 22C16.009 22 16.3 21.709 16.3 21.35C16.3 20.9911 16.009 20.7 15.65 20.7L7.25 20.7C6.17304 20.7 5.3 19.827 5.3 18.75L5.3 9.35004C5.3 8.99105 5.00898 8.70004 4.65 8.70004ZM16.6282 12.0574C16.9872 12.0574 17.2782 11.7664 17.2782 11.4074C17.2782 11.0484 16.9872 10.7574 16.6282 10.7574L10.6704 10.7574C10.3114 10.7574 10.0204 11.0484 10.0204 11.4074C10.0204 11.7664 10.3114 12.0574 10.6704 12.0574L16.6282 12.0574ZM16.6282 15.5673C16.9872 15.5673 17.2782 15.2763 17.2782 14.9173C17.2782 14.5583 16.9872 14.2673 16.6282 14.2673L10.6704 14.2673C10.3114 14.2673 10.0204 14.5583 10.0204 14.9173C10.0204 15.2763 10.3114 15.5673 10.6704 15.5673L16.6282 15.5673Z"/></svg>

<svg xmlns="http://www.w3.org/2000/svg" fill="none" viewBox="0 0 24 24" focusable="false"><path fill="#74767B" fill-rule="evenodd" d="M17.64 3.35c1.66 0 3 1.34 3 3v10c0 1.65-1.34 3-3 3h-8c-1.65 0-3-1.35-3-3v-10c0-1.66 1.35-3 3-3zm-8 1.3h8c.94 0 1.71.76 1.71 1.7v10c0 .93-.77 1.69-1.71 1.69h-8c-.93 0-1.7-.76-1.7-1.69v-10c0-.94.77-1.7 1.7-1.7m4.38 3.24c0 .36-.29.65-.65.65h-2.7c-.36 0-.65-.29-.65-.65s.29-.65.65-.65h2.7c.36 0 .65.29.65.65m-9.38.81c-.35 0-.64.29-.64.65v9.4A3.25 3.25 0 0 0 7.25 22h8.39c.36 0 .65-.3.65-.65 0-.36-.29-.65-.65-.65H7.25c-1.08 0-1.95-.88-1.95-1.95v-9.4c0-.36-.3-.65-.66-.65m11.98 3.35c.36 0 .65-.29.65-.65s-.29-.65-.65-.65h-5.95c-.36 0-.65.29-.65.65s.29.65.65.65zm0 3.51c.36 0 .65-.29.65-.65s-.29-.65-.65-.65h-5.95c-.36 0-.65.29-.65.65s.29.65.65.65z"/></svg>
